X:1
T: Bunkers' Hill
C:
R:Reel
Q: 232
K:G
M:4/4
L:1/8
|:BA|GE DE G2 GA|GE DB c2 Bc|AG FG A2 AB|AG EB cB cA|
GE DE G2 GA|GE DB c2 Bc|((3dcB) cA BG AF|GE DB c2 BA|
GB dB GB dB|GB dB ed cB|Ac ec Ac ec|Ac ec fe dc|
GB dB GB dB|GB dB c2 Bc|((3dcB) cA BG AF|GE DB c2:|
